X:206
T:Milesian, The
R:polka 32
M:2/4
L:1/8
K:G
GD DB|BG Gd|cB AG|FG/A/ DE/F/|
GD DB|BG Gd|BG AF|G3 d||
ed gd|ed gf|ed cB|AA/B/ Ad|
ed gd|ed ge|dc BA|GG/A/ G2|]

